X: 20461
M: 6/8
L: 1/8
K: D
(A/G/) |\
(FD).D (ED).D | (FG).F (FE).D | AFF dFF | (EF)E E2(A/G/) |\
(a/g/) |\
fdd edc | (Bd).B (AG).F | (fd).a (ec).a | (dB)^g a2(a/=g/) |\
(fd).d (edc) | (Bd).B (AG)F | AFF dFF | (EF).E "_D.C."E2 |]


